public/avatar/hat/33.svg

<svg xmlns:xlink="http://www.w3.org/1999/xlink" height="92.9" width="100.7" xmlns="http://www.w3.org/2000/svg"><use height="22.45" transform="translate(16.45 42.05)" width="36.6" xlink:href="#a"/><defs><g id="a"><path d="M-5-4.85V-5l-.1-.4-.05-1.55.05-.05 1.95.75.45.25Q-.9-5-.25-4.3l.2.25L1.4-7.1q.6-.25 1 .8.45 1.05.2 2.1l-.15.95.85-1.45Q5.4-6 6.45-6l.35.25q.15.45-.2 1.8l-.2.7-.1.35 2.05-.35.3.35-.05 1.05-.05.2v.05q2.35.9 3.75 3.25l.85 1.9.3.95q.5 2-.25 4.35l-.75 1.7q-.35.35-.65.2-.3-.15-1.15-2.7-.9-2.7-2-3.55-.35-.3-.8-.5L7.1 6.45q-1.25 3.2-2 3.1-.4-.05-.65-1.8Q4.15 5.7 3.6 5L1.75 3.25l-.45-.5h-.25L.5 4.4Q-.3 6-1.95 6.5q-.8-1.75-.8-2.35l.05-.2-1.15.65q-2.65 4.6-3.1 4.6-.4 0-.7-1.5-.35-1.6 0-2.5l.9-1.35-1.05.5q-1.2.7-2.95 3.35l-2 2.65-.05.05-1.35 3.4q-2.35.8-4.6-1.2-3.6-3.3-2.5-7.45.55-2.1 1.8-3.55.5 4 2.35 2.2l.55-.85.95-1.45 1.35-1.95q2.15-3.15 5.5-4 1.3-.3 3.3-.05l.55.1-.1-.45" fill="#bcd2e9" fill-rule="evenodd" transform="translate(22.2 7.7)"/><path d="M-14.15 13.8q-1.4 1.05-4.35-.35-2.95-1.45-3.2-5.7-.25-4.1 2.25-6.15l.25 1.15q.35 1.2.95 1.5.6.2 1.7-1.3l.95-1.45q2.5-4.2 4.5-5.2Q-8.5-5-5-4.85" fill="none" stroke="#69c" stroke-linecap="round" stroke-linejoin="round" transform="translate(22.2 7.7)"/><path d="M-5-4.85V-5l-.1-.4-.05-1.55.05-.05 1.95.75.45.25Q-.9-5-.25-4.3l.2.25L1.4-7.1q.6-.25 1 .8.45 1.05.2 2.1l-.15.95.85-1.45Q5.4-6 6.45-6l.35.25q.15.45-.2 1.8l-.2.7-.1.35 2.05-.35.3.35-.05 1.05-.05.2v.05q2.35.9 3.75 3.25l.85 1.9.3.95q.5 2-.25 4.35l-.75 1.7q-.35.35-.65.2-.3-.15-1.15-2.7-.9-2.7-2-3.55-.35-.3-.8-.5L7.1 6.45q-1.25 3.2-2 3.1-.4-.05-.65-1.8Q4.15 5.7 3.6 5L1.75 3.25l-.45-.5h-.25L.5 4.4Q-.3 6-1.95 6.5q-.8-1.75-.8-2.35l.05-.2-1.15.65q-2.65 4.6-3.1 4.6-.4 0-.7-1.5-.35-1.6 0-2.5l.9-1.35m-6.05 6.55-1.35 3.4Z" fill="none" stroke="#69c" stroke-linecap="round" stroke-linejoin="round" transform="translate(22.2 7.7)"/><path d="M6.3-4.15 5.45-2.8l-1.05.3.95-1 1.1-2q.1.75-.15 1.35m-5 1 .05-1.35.55-2 .4 2.1q0 .4-1 1.25m8.35 2.8Q11.3.75 11.9 2.1q1 2.15.7 7-.75-5.4-1.35-6.65L8.1-1.15l1.55.8m-10.6 4.3q.3-.85.6-3.75l.7 2.55q0 1.1-2 2.85l.7-1.65M-.3-4l-.05.6-2.1-1.15-2.35-2.1 2.55 1q1.1.6 1.95 1.65m6 11.95q.6-2.6.4-4.25Q5.95 2 3.85-.65q3.5 2 3.65 3.85.2 1.8-1.8 4.75" fill="#fff" fill-rule="evenodd" transform="translate(22.2 7.7)"/><path d="m1.15-2.45 2.1-1.4.15.05q.8-.5 1.1-.4.25.15-.9 1.85l1.9-.05L7-2.45l-1.3 1.2.85.8q1.4.35 2.8 1.85l.8 1.3.25 1.8q.5 2.05.7 4.8l-.9-2.5q-.35-1.1-1.4-2.1l-1-.8V2.8Q7.5 1.6 5.95-.15L4.2-.6l.55.35q.4.1 1.05 2.5L2.9.05l.6 1.55 1.15 2.65Q5.4 5.9 4.6 8.4l-.4-2q-.05-.65-1-1.85l-1.45-1.4-.5-.55L1 2.5-.1 1q-.25 2.55-.7 3.35L-1.95 6.5q-.85-2.55-.85-3.9V.55L-5.95 3.1q-.6 1.2-1.65 4.75-.3-1.8-.05-2.65l.4-.9-2.1 1.35 1.3-2.35 1.15-1.9 2-1.95q-.8 0-2.2.9L-9.05 1.6l-1.9 2.4-2.1 6.1q-.55-3.85.35-6.15l-.2.15Q-11.45-.05-9-1.05l2.3-.85q.55-.55 1.05-.6l2.15.05-.4-.7-.2-1.35q.95.15 3.8 1.95.35-1.3.8-1.55.65-.3.65 1.65" fill="#9fbfdf" fill-rule="evenodd" transform="translate(22.2 7.7)"/><path d="M-12.2-.75q1.35-1.7 4.6-1.7l-3.4 5.2-3.2 11.65q-1.65.9-5.25-2.15-3.5-3.1-2-7.2l.75 2.75q1.25 2.55 3.6 1.6 1.15-.45 1.65-3.4.55-3.35 3.25-6.75" fill="#9fbfdf" fill-rule="evenodd" transform="translate(22.2 7.7)"/><path d="M12.45 10.55q2.5-2.6.7-7l-.1-.25-.75-1.65q-1.65-3-3.75-3.3H8.5l.1-.2.05-1.05-.1-.1-2.3.1.15-.35q.75-1.95.4-2.5l-.15-.15q-.45-.3-2.25.8L2.65-4q.3-3.25-1-3.2-.85.05-1.5 1.55l-.4 1.35-.05.15-2.85-2.1L-5.1-7l-.05.05Q-5.45-6.6-5-5v.1l.6 1.75-.9-.35q-.95-.3-1.15 0l-.3 1.8q-2.95-.05-5 3.35-2.05 3.45-1.35 8.75l.05.55" fill="none" stroke="#69c" stroke-linecap="round" stroke-linejoin="round" transform="translate(22.2 7.7)"/></g></defs></svg>

<?xml version="1.0" encoding="UTF-8" standalone="no"?>
<svg xmlns:xlink="http://www.w3.org/1999/xlink" height="92.9px" width="100.7px" xmlns="http://www.w3.org/2000/svg">
  <g transform="matrix(1.0, 0.0, 0.0, 1.0, 38.65, 49.75)">
    <use height="22.45" transform="matrix(1.0, 0.0, 0.0, 1.0, -22.2, -7.7)" width="36.6" xlink:href="#shape0"/>
  </g>
  <defs>
    <g id="shape0" transform="matrix(1.0, 0.0, 0.0, 1.0, 22.2, 7.7)">
      <path d="M-5.0 -4.85 L-5.0 -5.0 -5.1 -5.4 -5.15 -6.95 -5.1 -7.0 -3.15 -6.25 -2.7 -6.0 Q-0.9 -5.0 -0.25 -4.3 L-0.05 -4.05 1.4 -7.1 Q2.0 -7.35 2.4 -6.3 2.85 -5.25 2.6 -4.2 L2.45 -3.25 3.3 -4.7 Q5.4 -6.0 6.45 -6.0 L6.8 -5.75 Q6.95 -5.3 6.6 -3.95 L6.4 -3.25 6.3 -2.9 8.35 -3.25 8.65 -2.9 8.6 -1.85 8.55 -1.65 8.55 -1.6 Q10.9 -0.7 12.3 1.65 L13.15 3.55 13.45 4.5 Q13.95 6.5 13.2 8.85 L12.45 10.55 Q12.1 10.9 11.8 10.75 11.5 10.6 10.65 8.05 9.75 5.35 8.65 4.5 8.3 4.2 7.85 4.0 L7.1 6.45 Q5.85 9.65 5.1 9.55 4.7 9.5 4.45 7.75 4.15 5.7 3.6 5.0 L1.75 3.25 1.3 2.75 1.05 2.75 0.5 4.4 Q-0.3 6.0 -1.95 6.5 -2.75 4.75 -2.75 4.15 L-2.7 3.95 -3.85 4.6 Q-6.5 9.2 -6.95 9.2 -7.35 9.2 -7.65 7.7 -8.0 6.1 -7.65 5.2 L-6.75 3.85 -7.8 4.35 Q-9.0 5.05 -10.75 7.7 L-12.75 10.35 -12.8 10.4 -14.15 13.8 Q-16.5 14.6 -18.75 12.6 -22.35 9.3 -21.25 5.15 -20.7 3.05 -19.45 1.6 -18.95 5.6 -17.1 3.8 L-16.55 2.95 -15.6 1.5 -14.25 -0.45 Q-12.1 -3.6 -8.75 -4.45 -7.45 -4.75 -5.45 -4.5 L-4.9 -4.4 -5.0 -4.85" fill="#bcd2e9" fill-rule="evenodd" stroke="none"/>
      <path d="M-14.15 13.8 Q-15.55 14.85 -18.5 13.45 -21.45 12.0 -21.7 7.75 -21.95 3.65 -19.45 1.6 L-19.2 2.75 Q-18.85 3.95 -18.25 4.25 -17.65 4.45 -16.55 2.95 L-15.6 1.5 Q-13.1 -2.7 -11.1 -3.7 -8.5 -5.0 -5.0 -4.85" fill="none" stroke="#6699cc" stroke-linecap="round" stroke-linejoin="round" stroke-width="1.0"/>
      <path d="M-5.0 -4.85 L-5.0 -5.0 -5.1 -5.4 -5.15 -6.95 -5.1 -7.0 -3.15 -6.25 -2.7 -6.0 Q-0.9 -5.0 -0.25 -4.3 L-0.05 -4.05 1.4 -7.1 Q2.0 -7.35 2.4 -6.3 2.85 -5.25 2.6 -4.2 L2.45 -3.25 3.3 -4.7 Q5.4 -6.0 6.45 -6.0 L6.8 -5.75 Q6.95 -5.3 6.6 -3.95 L6.4 -3.25 6.3 -2.9 8.35 -3.25 8.65 -2.9 8.6 -1.85 8.55 -1.65 8.55 -1.6 Q10.9 -0.7 12.3 1.65 L13.15 3.55 13.45 4.5 Q13.95 6.5 13.2 8.85 L12.45 10.55 Q12.1 10.9 11.8 10.75 11.5 10.6 10.65 8.05 9.75 5.35 8.65 4.5 8.3 4.2 7.85 4.0 L7.1 6.45 Q5.85 9.65 5.1 9.55 4.7 9.5 4.45 7.75 4.15 5.7 3.6 5.0 L1.75 3.25 1.3 2.75 1.05 2.75 0.5 4.4 Q-0.3 6.0 -1.95 6.5 -2.75 4.75 -2.75 4.15 L-2.7 3.95 -3.85 4.6 Q-6.5 9.2 -6.95 9.2 -7.35 9.2 -7.65 7.7 -8.0 6.1 -7.65 5.2 L-6.75 3.85 M-12.8 10.4 L-14.15 13.8 Z" fill="none" stroke="#6699cc" stroke-linecap="round" stroke-linejoin="round" stroke-width="1.0"/>
      <path d="M6.3 -4.15 L5.45 -2.8 4.4 -2.5 5.35 -3.5 6.45 -5.5 Q6.55 -4.75 6.3 -4.15 M1.3 -3.15 L1.35 -4.5 1.9 -6.5 2.3 -4.4 Q2.3 -4.0 1.3 -3.15 M9.65 -0.35 Q11.3 0.75 11.9 2.1 12.9 4.25 12.6 9.1 11.85 3.7 11.25 2.45 L8.1 -1.15 9.65 -0.35 M-0.95 3.95 Q-0.65 3.1 -0.35 0.2 L0.35 2.75 Q0.35 3.85 -1.65 5.6 L-0.95 3.95 M-0.3 -4.0 L-0.35 -3.4 -2.45 -4.55 -4.8 -6.65 -2.25 -5.65 Q-1.15 -5.05 -0.3 -4.0 M5.7 7.95 Q6.3 5.35 6.1 3.7 5.95 2.0 3.85 -0.65 7.35 1.35 7.5 3.2 7.7 5.0 5.7 7.95" fill="#ffffff" fill-rule="evenodd" stroke="none"/>
      <path d="M1.15 -2.45 L3.25 -3.85 3.4 -3.8 Q4.2 -4.3 4.5 -4.2 4.75 -4.05 3.6 -2.35 L5.5 -2.4 7.0 -2.45 5.7 -1.25 6.55 -0.45 Q7.95 -0.1 9.35 1.4 L10.15 2.7 10.4 4.5 Q10.9 6.55 11.1 9.3 L10.2 6.8 Q9.85 5.7 8.8 4.7 L7.8 3.9 7.8 2.8 Q7.5 1.6 5.95 -0.15 L4.2 -0.6 4.75 -0.25 Q5.15 -0.15 5.8 2.25 L2.9 0.05 3.5 1.6 4.65 4.25 Q5.4 5.9 4.6 8.4 L4.2 6.4 Q4.15 5.75 3.2 4.55 L1.75 3.15 1.25 2.6 1.0 2.5 -0.1 1.0 Q-0.35 3.55 -0.8 4.35 L-1.95 6.5 Q-2.8 3.95 -2.8 2.6 L-2.8 0.55 -5.95 3.1 Q-6.55 4.3 -7.6 7.85 -7.9 6.05 -7.65 5.2 L-7.25 4.3 -9.35 5.65 -8.05 3.3 -6.9 1.4 -4.9 -0.55 Q-5.7 -0.55 -7.1 0.35 L-9.05 1.6 -10.95 4.0 -13.05 10.1 Q-13.6 6.25 -12.7 3.95 L-12.9 4.1 Q-11.45 -0.05 -9.0 -1.05 L-6.7 -1.9 Q-6.15 -2.45 -5.65 -2.5 L-3.5 -2.45 -3.9 -3.15 -4.1 -4.5 Q-3.15 -4.35 -0.3 -2.55 0.05 -3.85 0.5 -4.1 1.15 -4.4 1.15 -2.45" fill="#9fbfdf" fill-rule="evenodd" stroke="none"/>
      <path d="M-12.2 -0.75 Q-10.85 -2.45 -7.6 -2.45 L-11.0 2.75 -14.2 14.4 Q-15.85 15.3 -19.45 12.25 -22.95 9.15 -21.45 5.05 L-20.7 7.8 Q-19.45 10.35 -17.1 9.4 -15.95 8.95 -15.45 6.0 -14.9 2.65 -12.2 -0.75" fill="#9fbfdf" fill-rule="evenodd" stroke="none"/>
      <path d="M12.45 10.55 Q14.95 7.95 13.15 3.55 L13.05 3.3 12.3 1.65 Q10.65 -1.35 8.55 -1.65 L8.5 -1.65 8.6 -1.85 8.65 -2.9 8.55 -3.0 6.25 -2.9 6.4 -3.25 Q7.15 -5.2 6.8 -5.75 L6.65 -5.9 Q6.2 -6.2 4.4 -5.1 L2.65 -4.0 Q2.95 -7.25 1.65 -7.2 0.8 -7.15 0.15 -5.65 L-0.25 -4.3 -0.3 -4.15 -3.15 -6.25 -5.1 -7.0 -5.15 -6.95 Q-5.45 -6.6 -5.0 -5.0 L-5.0 -4.9 -4.4 -3.15 -5.3 -3.5 Q-6.25 -3.8 -6.45 -3.5 L-6.75 -1.7 Q-9.7 -1.75 -11.75 1.65 -13.8 5.1 -13.1 10.4 L-13.05 10.95" fill="none" stroke="#6699cc" stroke-linecap="round" stroke-linejoin="round" stroke-width="1.0"/>
    </g>
  </defs>
</svg>
